X: 39778
T: Thanksgiving, The
R: polka
M: 2/4
K: Gmajor
ed BA|G<E DE|G2 G>A|G2 GA|
Bc de|d<B AG|A2 A>B|A2 g>f|
ed BA|G<E DE|Gg fe|d3e|
dB AG|E2 F>D|G4-|G2||
B2 d2|e>f ge|d/g/z B/d/z|G3 A|
B2 d2|e/g/z f/a/z|g4-|g2 g>a|
ba gf|e2 g>e|dB GB|A2 B>c|
dB AG|E2 F>D|G4-|G2||

